dist/images/footer-call.svg

<svg width="25" height="25" viewBox="0 0 25 25" fill="none" xmlns="http://www.w3.org/2000/svg">
<path d="M18.3954 14.535C18.1035 14.3735 16.6489 13.6062 16.3783 13.5024C16.1078 13.3928 15.9096 13.3408 15.714 13.6639C15.5158 13.9841 14.9532 14.6965 14.7764 14.9129C14.605 15.1263 14.4309 15.1523 14.1389 14.9936C12.4031 14.0591 11.2646 13.3264 10.1208 11.2121C9.81806 10.6497 10.4235 10.6901 10.9887 9.47572C11.0851 9.26228 11.0369 9.08056 10.9619 8.91903C10.8869 8.7575 10.2976 7.19415 10.0511 6.55669C9.8127 5.93654 9.56625 6.02308 9.38678 6.01154C9.21533 6 9.01979 6 8.82156 6C8.62333 6 8.30456 6.08076 8.034 6.39517C7.76345 6.71534 7 7.48548 7 9.04883C7 10.6122 8.05811 12.1265 8.20276 12.34C8.35277 12.5534 10.2842 15.7609 13.2495 17.1425C15.1247 18.0136 15.8587 18.0886 16.7962 17.9386C17.3668 17.8463 18.5428 17.1714 18.7865 16.4243C19.0303 15.6801 19.0303 15.0427 18.958 14.91C18.8857 14.7686 18.6874 14.6879 18.3954 14.535Z" fill="white"/>
<path d="M24.0289 7.65625C23.3983 6.15792 22.4943 4.81306 21.342 3.65792C20.1896 2.50558 18.8448 1.59877 17.3437 0.970982C15.8091 0.326451 14.1797 0 12.5 0H12.4442C10.7534 0.00837054 9.11556 0.343192 7.5754 1.00167C6.08825 1.63783 4.75456 2.54185 3.61339 3.6942C2.47223 4.84654 1.57659 6.18583 0.957178 7.67857C0.315445 9.22433 -0.00821214 10.8677 0.000158292 12.5586C0.00852872 14.495 0.471693 16.4174 1.33943 18.1362V22.3772C1.33943 23.0859 1.9142 23.6607 2.62289 23.6607H6.8667C8.58543 24.5285 10.5078 24.9916 12.4442 25H12.5028C14.1741 25 15.7952 24.6763 17.3214 24.043C18.8141 23.4208 20.1562 22.5279 21.3057 21.3867C22.458 20.2455 23.3648 18.9118 23.9982 17.4247C24.6567 15.8845 24.9915 14.2467 24.9998 12.5558C25.0082 10.8566 24.679 9.20759 24.0289 7.65625ZM19.813 19.8772C17.8571 21.8136 15.2622 22.8795 12.5 22.8795H12.4526C10.7701 22.8711 9.09882 22.4526 7.62283 21.6657L7.38846 21.5402H3.45994V17.6116L3.33438 17.3772C2.54756 15.9012 2.12904 14.2299 2.12067 12.5474C2.10951 9.76562 3.17255 7.15402 5.12286 5.18694C7.07038 3.21987 9.67359 2.1317 12.4554 2.12054H12.5028C13.8979 2.12054 15.2511 2.39118 16.5262 2.9269C17.7706 3.44866 18.8866 4.19922 19.8464 5.15904C20.8035 6.11607 21.5568 7.23493 22.0786 8.47935C22.6199 9.76841 22.8905 11.1356 22.8849 12.5474C22.8682 15.3265 21.7772 17.9297 19.813 19.8772Z" fill="white"/>
</svg>

<svg width="25" height="25" fill="none" xmlns="http://www.w3.org/2000/svg"><path d="M18.395 14.535c-.291-.162-1.746-.929-2.017-1.033-.27-.11-.468-.161-.664.162-.198.32-.76 1.033-.938 1.249-.171.213-.345.24-.637.08-1.736-.934-2.874-1.667-4.018-3.78-.303-.563.303-.523.868-1.737.096-.214.048-.395-.027-.557-.075-.162-.664-1.725-.91-2.362-.24-.62-.486-.534-.665-.545C9.215 6 9.02 6 8.822 6c-.199 0-.517.08-.788.395C7.764 6.715 7 7.485 7 9.05c0 1.563 1.058 3.078 1.203 3.291.15.213 2.081 3.42 5.046 4.802 1.876.872 2.61.947 3.547.797.57-.093 1.747-.768 1.99-1.515.244-.744.244-1.381.172-1.514-.072-.141-.27-.222-.563-.375z" fill="#fff"/><path d="M24.029 7.656a12.505 12.505 0 0 0-2.687-3.998A12.399 12.399 0 0 0 17.344.97 12.44 12.44 0 0 0 12.5 0h-.056a12.47 12.47 0 0 0-8.83 3.694A12.387 12.387 0 0 0 .956 7.68 12.505 12.505 0 0 0 0 12.559a12.54 12.54 0 0 0 1.34 5.577v4.241c0 .709.574 1.284 1.283 1.284h4.244A12.538 12.538 0 0 0 12.444 25h.059a12.51 12.51 0 0 0 4.818-.957 12.401 12.401 0 0 0 3.985-2.656A12.47 12.47 0 0 0 25 12.557c.008-1.7-.321-3.35-.971-4.9zm-4.216 12.221A10.325 10.325 0 0 1 12.5 22.88h-.047a10.416 10.416 0 0 1-4.83-1.214l-.235-.126H3.46v-3.928l-.126-.235a10.416 10.416 0 0 1-1.213-4.83 10.315 10.315 0 0 1 3.002-7.36 10.301 10.301 0 0 1 7.332-3.066h.048c1.395 0 2.748.27 4.023.806a10.313 10.313 0 0 1 3.32 2.232 10.337 10.337 0 0 1 3.038 7.388 10.34 10.34 0 0 1-3.071 7.33z" fill="#fff"/></svg>
